static/images/mobile/copyright/wikipedia-wordmark-lij.svg

<svg width="120" height="18" viewBox="0 0 120 18" fill="none" xmlns="http://www.w3.org/2000/svg">
<path fill-rule="evenodd" clip-rule="evenodd" d="M20.0345 0.00448947C20.0345 0.00448947 16.8008 -0.00561184 15.3611 0.00448947L15.2894 0.0559726V0.556736C15.2894 0.61832 15.3156 0.666782 15.3681 0.704151C15.4216 0.743518 15.4762 0.763706 15.5347 0.763706L15.7659 0.788944C16.3545 0.813175 16.6251 0.967639 16.7058 1.06456C16.8462 1.23619 16.9158 1.42197 16.5756 2.16402L14.5423 6.21935L12.7038 2.45783C12.1001 1.25539 11.9517 0.883853 12.8603 0.813175L13.2197 0.761692C13.3944 0.761692 13.4802 0.700107 13.4802 0.579959V0.0539585L13.3489 0.0105472C13.3489 0.0105472 9.92743 0.0105472 8.3898 0.0125614L8.31812 0.0640598V0.592075C8.31812 0.710208 8.44128 0.740482 8.67957 0.771778C9.46838 0.87566 9.5105 0.959583 10.1829 2.30011L10.1912 2.31665C10.2419 2.41771 10.2961 2.52585 10.3545 2.64157C10.4807 2.89194 10.8512 3.6451 10.8512 3.6451L12.7674 7.41092C12.7674 7.41092 12.9848 7.89315 13.3256 8.64611L10.5382 14.2055L10.3797 14.1641C10.3797 14.1641 6.05557 5.04644 4.80368 1.99643C4.67343 1.68042 4.61487 1.4462 4.61487 1.30182C4.61487 0.99187 4.89453 0.824283 5.45386 0.801059L6.10605 0.773807C6.27869 0.773807 6.36655 0.707172 6.36655 0.568851V0.0680881L6.30798 0.016605C6.30798 0.016605 1.12874 0.0105472 0.0585632 0.016605L0 0.0680881V0.594089C0 0.688999 0.120148 0.747562 0.361435 0.773807C1.01869 0.809146 1.45079 0.914142 1.65877 1.08879C1.86574 1.26548 2.08482 1.71172 2.3756 2.40734C3.18887 4.36089 4.47534 7.10736 5.7529 9.8348L5.75363 9.83626C6.94519 12.38 8.12894 14.9071 8.91376 16.7588C9.3822 17.8068 9.97079 17.9693 10.6856 16.7265C11.3991 15.403 12.8166 12.5128 13.8892 10.3019L13.6559 11.516C13.6357 11.5826 13.8456 11.8118 13.9113 11.832L14.0677 11.733C14.1324 11.7532 14.2727 11.6916 14.2929 11.627L14.3202 11.3605L14.1089 10.3728C15.1072 12.569 16.4029 15.4001 17.04 16.7124C17.5701 17.8057 18.1728 17.9128 18.7856 16.7457C20.3869 13.1858 25.0664 2.47498 25.0664 2.47498C25.2693 1.94898 25.552 1.54413 25.9144 1.25034C26.2759 0.958561 26.8342 0.795017 27.5873 0.761692C27.7408 0.761692 27.8185 0.693042 27.8185 0.556736V0.0539585L27.76 0.00247531H22.0113L21.9386 0.0539585V0.556736C21.9386 0.616306 21.9659 0.665775 22.0184 0.703128C22.0719 0.742511 22.1274 0.763706 22.186 0.763706L22.6635 0.787937C23.2531 0.812168 23.4137 0.929279 23.6418 1.12717C23.869 1.3301 23.8962 1.67539 23.7196 2.16201L18.6312 14.2378L18.4353 14.1843L15.205 7.57506L15.2793 7.42L17.9224 2.47699C18.2303 1.95504 18.5272 1.48961 18.6776 1.27254C18.9532 0.875766 19.1077 0.801059 19.8608 0.76572C20.0143 0.76572 20.092 0.697071 20.092 0.55875V0.0579868L20.0345 0.00448947ZM29.867 15.6361C29.867 16.2136 30.1295 16.5549 30.9695 16.6336L31.5207 16.6871C31.5995 16.6871 31.6782 16.7386 31.6782 16.8436V17.3948L31.652 17.4484C31.652 17.4484 29.657 17.3948 28.8433 17.3948C28.1083 17.3948 26.0608 17.4484 26.0608 17.4484L26.0083 17.3948V16.8436C26.0083 16.7386 26.087 16.6871 26.192 16.6871L26.717 16.6336C27.5833 16.5549 27.8458 16.1349 27.8458 15.6361V6.89501C27.8458 6.31853 27.5298 6.15902 26.717 6.08228L26.192 6.02776C26.087 6.02776 26.0083 6.00354 26.0083 5.92278V5.31803L26.0345 5.26552C26.0345 5.26552 28.1083 5.31803 28.922 5.31803C29.6307 5.31803 31.652 5.26552 31.652 5.26552L31.6782 5.31803V5.89551C31.6782 5.97426 31.6257 6.02675 31.5207 6.02675L30.9695 6.08026C30.1557 6.15801 29.867 6.36901 29.867 6.89501V15.6361ZM38.7161 16.6336C37.9549 16.5024 37.6136 16.2136 37.6136 15.6361V11.7482C38.1911 11.7482 38.6111 11.8774 39.0049 12.4034L41.9186 16.0268C42.2861 16.4468 42.3123 16.7336 42.3123 17.0758V17.3908L42.3386 17.4171C42.3386 17.4171 43.2835 17.3908 43.9398 17.3908C44.6748 17.3908 46.066 17.4171 46.066 17.4171L46.1447 17.3908V16.8396C46.1447 16.7608 46.0398 16.7083 45.961 16.6821L45.8297 16.6568C45.3047 16.5528 44.6748 16.3943 44.3598 16.0279L40.3961 11.2504C40.2648 11.0929 40.1599 10.9627 40.1599 10.8052C40.1599 10.5942 40.3174 10.3065 40.7636 9.83295L43.0211 7.23525C43.9641 6.16117 44.672 6.10672 45.6924 6.02822L45.6985 6.02776C45.8297 6.02776 45.9085 5.97527 45.9085 5.89652V5.29177L45.8297 5.26653C45.8297 5.26653 44.6748 5.31903 43.9923 5.31903C43.231 5.31903 41.1048 5.26653 41.1048 5.26653L41.0786 5.29177V5.89652C41.0786 5.97527 41.1311 6.00252 41.2361 6.02776C41.7611 6.10753 41.9973 6.34276 41.9973 6.55378C41.9973 7.05353 41.1836 8.02274 40.1336 9.17873C38.9786 10.4135 38.4799 10.8587 37.6136 10.8587V6.89501C37.6136 6.36901 37.9024 6.23676 38.7161 6.08026L39.0049 6.02675C39.1099 6.00051 39.1624 5.97426 39.1624 5.89551V5.31803L39.1361 5.26552C39.1361 5.26552 37.4834 5.31803 36.7474 5.31803C35.9337 5.31803 33.7812 5.26552 33.7812 5.26552L33.7549 5.31803V5.92278C33.7549 6.00354 33.8337 6.02776 33.9387 6.02776L34.4637 6.08228C35.3037 6.15902 35.5924 6.31853 35.5924 6.89501V15.6361C35.5924 16.1349 35.2512 16.5549 34.4637 16.6336L33.9387 16.6871C33.8337 16.6871 33.7549 16.7386 33.7549 16.8436V17.3948L33.8074 17.4484C33.8074 17.4484 35.9599 17.3948 36.6949 17.3948C37.4824 17.3948 39.1361 17.4484 39.1361 17.4484L39.1624 17.3948V16.8436C39.1624 16.7386 39.0836 16.7124 39.0049 16.6871L38.7161 16.6336ZM51.7652 15.6361C51.7652 16.2136 52.0277 16.5549 52.8677 16.6336L53.4189 16.6871C53.4977 16.6871 53.5764 16.7386 53.5764 16.8436V17.3948L53.5502 17.4484C53.5502 17.4484 51.5552 17.3948 50.7415 17.3948C50.0065 17.3948 47.959 17.4484 47.959 17.4484L47.9065 17.3948V16.8436C47.9065 16.7386 47.9852 16.6871 48.0902 16.6871L48.6152 16.6336C49.4815 16.5549 49.744 16.1349 49.744 15.6361V6.89501C49.744 6.31853 49.429 6.15902 48.6152 6.08228L48.0902 6.02776C47.9852 6.02776 47.9065 6.00354 47.9065 5.92278V5.31803L47.9327 5.26552C47.9327 5.26552 50.0065 5.31803 50.8202 5.31803C51.5289 5.31803 53.5502 5.26552 53.5502 5.26552L53.5764 5.31803V5.89551C53.5764 5.97426 53.5239 6.02675 53.4189 6.02675L52.8677 6.08026C52.0539 6.15801 51.7652 6.36901 51.7652 6.89501V15.6361ZM55.8622 6.02776C57.0959 6.10651 57.4371 6.13277 57.4371 6.94651L57.4391 15.7654C57.4391 16.2641 57.1766 16.5003 56.3629 16.6053L55.8117 16.6841C55.7067 16.7103 55.6542 16.7366 55.6542 16.8416V17.3928L55.6804 17.4453C55.6804 17.4453 57.6491 17.3928 58.3841 17.3928C59.1979 17.3928 61.2979 17.4453 61.2979 17.4453L61.3231 17.3928V16.8416C61.3231 16.7376 61.2443 16.7103 61.1393 16.6841L60.6133 16.6053C59.7723 16.4751 59.4573 16.3428 59.4573 15.7654V12.2499C59.9308 12.4589 60.4558 12.5124 61.1121 12.5124C64.8375 12.5124 65.5987 10.046 65.5987 8.46999C65.5987 7.10298 64.9162 5.26653 61.1908 5.26653C60.6714 5.26653 60.1295 5.28154 59.6253 5.29552L59.6236 5.29557C59.1856 5.3077 58.7761 5.31903 58.4346 5.31903C57.9918 5.31903 57.2826 5.30127 56.6892 5.28641C56.2625 5.27571 55.8956 5.26653 55.7309 5.26653L55.6784 5.29277V5.89652C55.6784 5.95003 55.7047 6.02776 55.8622 6.02776ZM61.1646 11.7512C60.6396 11.7512 59.9833 11.726 59.4583 11.5149L59.4573 6.94751C59.4573 6.26502 59.7723 6.02877 61.0333 6.02877C62.475 6.02877 63.4988 6.52751 63.4988 8.78499C63.4988 10.8042 62.7406 11.7512 61.1646 11.7512ZM70.1198 17.3948C69.3322 17.3948 67.522 17.4484 67.522 17.4484L67.4948 17.3948V16.8174C67.4948 16.7659 67.522 16.6871 67.6523 16.6871L68.257 16.6336C69.0718 16.5549 69.308 16.0299 69.308 15.5059V6.84352C69.308 6.23777 68.992 6.13378 68.257 6.08228L67.6523 6.02776C67.4948 6.00354 67.4948 5.95003 67.4948 5.92278V5.31803L67.522 5.26552C67.522 5.26552 69.5685 5.31803 70.356 5.31803H74.2147C75.0022 5.31803 76.8669 5.26552 76.8669 5.26552L76.9204 5.31803C76.9456 6.44675 77.1294 7.47251 77.3141 8.46898L76.6589 8.57398C76.3712 7.60173 75.8724 6.21151 74.1925 6.21151H72.0925C71.5938 6.21151 71.3313 6.39527 71.3313 6.84049V10.6477H73.299C74.035 10.6477 74.2177 10.3327 74.3237 9.80771L74.4802 9.25646C74.4802 9.17772 74.5337 9.12421 74.6377 9.12421H75.0829C75.1047 9.12421 75.1176 9.12871 75.1252 9.13752C75.1364 9.15036 75.1364 9.1724 75.1364 9.20296C75.1223 9.35607 75.1045 9.52033 75.0861 9.6908C75.0351 10.1633 74.9789 10.6835 74.9789 11.1464C74.9789 11.5832 75.0256 11.9743 75.0723 12.3653C75.0956 12.5608 75.119 12.7564 75.1364 12.9577L75.0829 13.0112H74.6377C74.5074 13.0112 74.4529 12.9577 74.4529 12.8789L74.3217 12.3024C74.2167 11.7764 73.9804 11.4877 73.2959 11.4877H71.3293V15.5049C71.3293 16.0026 71.616 16.5014 72.0905 16.5014H74.5842C75.9229 16.5014 76.6589 15.6614 76.9729 14.2954L77.6281 14.3741L77.1021 17.3918L77.0496 17.4443C77.0496 17.4443 75.5009 17.3918 74.7134 17.3918L70.1198 17.3948ZM80.5953 16.6336L79.9916 16.6871C79.8876 16.6871 79.8341 16.7659 79.8361 16.8416V17.3928L79.8623 17.4453C79.8623 17.4453 81.8573 17.3928 82.6458 17.3928C82.958 17.3928 83.2856 17.4005 83.6893 17.4101C84.3378 17.4254 85.183 17.4453 86.4772 17.4453C89.39 17.4453 92.6459 16.0824 92.6459 11.4877C92.6459 7.99649 90.4924 5.26653 86.1087 5.26653C85.7404 5.26653 84.9053 5.28182 84.1363 5.2959C83.4803 5.30791 82.8725 5.31903 82.6438 5.31903C82.1703 5.31903 79.8593 5.26653 79.8593 5.26653L79.8341 5.31903V5.89652C79.8341 5.97527 79.9149 6.02776 80.0198 6.02776L80.5953 6.08228L80.6549 6.08756C81.4691 6.1594 81.6463 6.17502 81.6463 6.84352V15.5059C81.6463 16.3186 81.3838 16.5549 80.5953 16.6336ZM90.3622 11.9349C90.3622 15.6119 88.7327 16.6871 85.8463 16.6871C83.8503 16.6871 83.6675 16.2389 83.6675 15.5059V6.84352C83.6675 6.18526 84.3238 6.02776 85.3475 6.02776C89.7574 6.02776 90.3622 9.20598 90.3622 11.9349ZM98.8428 15.6361C98.8428 16.2136 99.1053 16.5549 99.9453 16.6336L100.497 16.6871C100.575 16.6871 100.654 16.7386 100.654 16.8436V17.3948L100.628 17.4484C100.628 17.4484 98.6328 17.3948 97.8201 17.3948C97.0841 17.3948 95.0376 17.4484 95.0376 17.4484L94.9841 17.3948V16.8436C94.9841 16.7386 95.0629 16.6871 95.1679 16.6871L95.6939 16.6336C96.5591 16.5549 96.8226 16.1349 96.8226 15.6361V6.89501C96.8226 6.31853 96.5066 6.15902 95.6939 6.08228L95.1679 6.02776C95.0629 6.02776 94.9841 6.00354 94.9841 5.92278V5.31803L95.0104 5.26552C95.0104 5.26552 97.0841 5.31803 97.8958 5.31803C98.6046 5.31803 100.627 5.26552 100.627 5.26552L100.652 5.31803V5.89551C100.652 5.97426 100.599 6.02675 100.495 6.02675L99.9433 6.08026C99.1295 6.15801 98.8408 6.36901 98.8408 6.89501L98.8428 15.6361ZM107.691 16.6871L106.93 16.6336C105.958 16.5549 105.617 15.9764 105.88 15.3181L107.403 11.5109C107.533 11.1707 107.691 11.0657 108.321 11.0657H113.781L115.382 15.5029C115.646 16.2368 115.276 16.5538 114.28 16.6316L113.545 16.6841C113.411 16.6841 113.359 16.7628 113.359 16.8951V17.3928L113.384 17.4453C113.384 17.4453 115.958 17.3928 116.876 17.3928C117.9 17.3928 119.921 17.4453 119.921 17.4453L120 17.3928V16.8951C120 16.7628 119.869 16.6841 119.737 16.6841L119.449 16.6588C118.399 16.5539 117.874 16.1611 117.505 15.1364L112.124 0.909092C111.915 0.384098 111.783 0.120594 111.416 0.120594C111.022 0.120594 110.811 0.384098 110.523 1.06658L104.696 14.7174C103.961 16.3974 103.307 16.6084 102.151 16.6871C102.019 16.6871 101.94 16.7659 101.94 16.8961V17.3948L101.994 17.4484C101.994 17.4484 103.674 17.3948 104.357 17.3948C104.987 17.3948 107.848 17.4484 107.848 17.4484L107.901 17.3948V16.8961C107.901 16.7659 107.796 16.6871 107.691 16.6871ZM110.815 2.95656L113.361 9.96419V9.9652H108.792C108.215 9.9652 108.032 9.88747 108.137 9.62395L110.762 2.95656H110.815Z" fill="black"/>
</svg>

<svg xmlns="http://www.w3.org/2000/svg" width="120" height="18" fill="none"><path fill="#000" fill-rule="evenodd" d="M20.035.004s-3.234-.01-4.674 0l-.072.052v.5c0 .062.027.11.08.148.053.04.107.06.166.06l.23.025c.59.024.86.179.94.276.141.171.21.357-.13 1.099l-2.033 4.055-1.838-3.761C12.1 1.255 11.952.884 12.86.813l.36-.051c.174 0 .26-.062.26-.182V.054L13.35.011s-3.422 0-4.96.002l-.07.051v.528c0 .118.122.148.36.18.79.104.832.188 1.504 1.528l.008.017.163.325c.127.25.497 1.003.497 1.003l1.916 3.766.559 1.235-2.788 5.56-.158-.042S6.056 5.046 4.804 1.996c-.13-.316-.19-.55-.19-.694 0-.31.28-.478.84-.5l.652-.028c.173 0 .26-.067.26-.205v-.5L6.309.016S1.128.01.058.017L0 .068v.526c0 .095.12.154.361.18.658.035 1.09.14 1.298.315.207.176.426.623.717 1.318.813 1.954 2.1 4.7 3.377 7.428v.001c1.192 2.544 2.376 5.071 3.16 6.923.47 1.048 1.058 1.21 1.773-.032.713-1.324 2.13-4.214 3.203-6.425l-.233 1.214c-.02.067.19.296.255.316l.157-.099c.064.02.205-.041.225-.106l.027-.267-.211-.987c.998 2.196 2.294 5.027 2.931 6.34.53 1.093 1.133 1.2 1.746.033 1.6-3.56 6.28-14.271 6.28-14.271.203-.526.486-.93.848-1.225.362-.291.92-.455 1.673-.488.154 0 .232-.069.232-.205V.054L27.76.002h-5.749l-.072.052v.503c0 .06.027.109.08.146a.28.28 0 0 0 .167.06l.477.025c.59.024.75.141.979.34.227.202.254.547.078 1.034L18.63 14.238l-.196-.054-3.23-6.609.074-.155 2.643-4.943c.308-.522.605-.987.756-1.204.275-.397.43-.472 1.183-.507.153 0 .231-.069.231-.207V.058l-.057-.054Zm9.832 15.632c0 .578.262.919 1.102.998l.552.053c.078 0 .157.052.157.157v.55l-.026.054s-1.995-.053-2.809-.053c-.735 0-2.782.053-2.782.053l-.053-.053v-.551c0-.105.079-.157.184-.157l.525-.053c.866-.08 1.129-.5 1.129-.998V6.895c0-.576-.316-.736-1.129-.813l-.525-.054c-.105 0-.184-.024-.184-.105v-.605l.027-.052s2.073.052 2.887.052c.709 0 2.73-.052 2.73-.052l.026.052v.578c0 .078-.052.13-.157.13l-.552.054c-.813.078-1.102.289-1.102.815v8.741Zm8.85.998c-.762-.132-1.103-.42-1.103-.998v-3.888c.577 0 .997.13 1.39.655l2.915 3.624c.367.42.393.707.393 1.049v.315l.027.026s.944-.026 1.6-.026c.736 0 2.127.026 2.127.026l.079-.026v-.551c0-.08-.105-.132-.184-.158l-.131-.025c-.525-.104-1.155-.263-1.47-.63l-3.964-4.777c-.131-.157-.236-.287-.236-.445 0-.21.157-.498.604-.972l2.257-2.598c.943-1.074 1.651-1.128 2.671-1.207h.007c.13 0 .21-.053.21-.131v-.605l-.08-.025s-1.154.052-1.837.052c-.761 0-2.887-.052-2.887-.052l-.026.025v.605c0 .078.052.106.157.13.525.08.761.316.761.527 0 .5-.813 1.469-1.863 2.625-1.155 1.235-1.654 1.68-2.52 1.68V6.895c0-.526.288-.658 1.102-.815l.289-.053c.105-.026.157-.053.157-.131v-.578l-.026-.052s-1.653.052-2.389.052c-.813 0-2.966-.052-2.966-.052l-.026.052v.605c0 .08.079.105.184.105l.525.054c.84.077 1.128.237 1.128.813v8.741c0 .499-.34.919-1.128.998l-.525.053c-.105 0-.184.052-.184.157v.55l.052.054s2.153-.053 2.888-.053c.787 0 2.441.053 2.441.053l.026-.053v-.551c0-.105-.078-.132-.157-.157l-.289-.053Zm13.048-.998c0 .578.263.919 1.103.998l.55.053c.08 0 .158.052.158.157v.55l-.026.054s-1.995-.053-2.808-.053c-.735 0-2.783.053-2.783.053l-.053-.053v-.551c0-.105.08-.157.184-.157l.525-.053c.866-.08 1.129-.5 1.129-.998V6.895c0-.576-.315-.736-1.129-.813l-.525-.054c-.105 0-.184-.024-.184-.105v-.605l.027-.052s2.074.052 2.887.052c.709 0 2.73-.052 2.73-.052l.026.052v.578c0 .078-.052.13-.157.13l-.551.054c-.814.078-1.103.289-1.103.815v8.741Zm4.097-9.608c1.234.079 1.575.105 1.575.919l.002 8.818c0 .5-.262.735-1.076.84l-.551.08c-.105.025-.158.052-.158.157v.55l.026.053s1.97-.052 2.704-.052c.814 0 2.914.052 2.914.052l.025-.052v-.551c0-.104-.079-.132-.184-.158l-.526-.079c-.84-.13-1.156-.262-1.156-.84V12.25c.474.209.999.262 1.655.262 3.726 0 4.487-2.466 4.487-4.042 0-1.367-.683-3.203-4.408-3.203-.52 0-1.062.015-1.566.029h-.001a45.94 45.94 0 0 1-1.19.023c-.442 0-1.151-.018-1.745-.033-.426-.01-.793-.02-.958-.02l-.053.027v.604c0 .053.027.13.184.13Zm5.303 5.723c-.525 0-1.182-.025-1.707-.236V6.948c0-.683.314-.92 1.575-.92 1.442 0 2.466.5 2.466 2.757 0 2.02-.758 2.966-2.334 2.966Zm8.955 5.644c-.788 0-2.598.053-2.598.053l-.027-.053v-.578c0-.051.027-.13.157-.13l.605-.053c.815-.08 1.051-.604 1.051-1.128V6.844c0-.606-.316-.71-1.051-.762l-.605-.054c-.157-.024-.157-.078-.157-.105v-.605l.027-.052s2.046.052 2.834.052h3.859c.787 0 2.652-.052 2.652-.052l.053.052c.026 1.129.21 2.155.394 3.151l-.655.105c-.288-.972-.787-2.362-2.467-2.362h-2.1c-.498 0-.76.183-.76.628v3.808h1.967c.736 0 .919-.315 1.025-.84l.156-.552c0-.078.054-.132.158-.132h.445c.022 0 .035.005.042.014.011.012.011.034.011.065-.014.153-.031.317-.05.488-.05.472-.107.992-.107 1.455 0 .437.047.828.093 1.22.024.195.047.39.064.592l-.053.053h-.445c-.13 0-.185-.053-.185-.132l-.131-.577c-.105-.526-.342-.814-1.026-.814h-1.967v4.017c0 .498.287.996.762.996h2.493c1.339 0 2.075-.84 2.389-2.206l.655.08-.526 3.017-.052.052s-1.55-.052-2.337-.052l-4.593.003Zm10.475-.761-.603.053a.148.148 0 0 0-.156.155v.55l.026.053s1.995-.052 2.784-.052c.312 0 .64.008 1.043.017.649.015 1.494.035 2.788.035 2.913 0 6.169-1.363 6.169-5.957 0-3.492-2.154-6.221-6.537-6.221-.369 0-1.204.015-1.973.029-.656.012-1.263.023-1.492.023-.474 0-2.785-.052-2.785-.052l-.025.052v.578c0 .078.08.13.186.13l.575.055.06.006c.814.071.991.087.991.756v8.662c0 .813-.262 1.049-1.05 1.128Zm9.767-4.7c0 3.678-1.63 4.753-4.516 4.753-1.996 0-2.178-.448-2.178-1.181V6.844c0-.659.656-.816 1.68-.816 4.41 0 5.014 3.178 5.014 5.907Zm8.48 3.702c0 .578.263.919 1.103.998l.552.053c.078 0 .157.052.157.157v.55l-.026.054s-1.995-.053-2.808-.053c-.736 0-2.782.053-2.782.053l-.054-.053v-.551c0-.105.079-.157.184-.157l.526-.053c.865-.08 1.129-.5 1.129-.998V6.895c0-.576-.316-.736-1.13-.813l-.525-.054c-.105 0-.184-.024-.184-.105v-.605l.026-.052s2.074.052 2.886.052c.709 0 2.731-.052 2.731-.052l.025.052v.578c0 .078-.053.13-.157.13l-.552.054c-.814.078-1.102.289-1.102.815l.002 8.741Zm8.849 1.051-.761-.053c-.972-.08-1.313-.658-1.05-1.316l1.523-3.807c.13-.34.288-.445.918-.445h5.46l1.601 4.437c.264.734-.106 1.05-1.102 1.129l-.735.052c-.134 0-.186.079-.186.211v.498l.025.052s2.574-.052 3.492-.052c1.024 0 3.045.052 3.045.052l.079-.052v-.498c0-.132-.131-.21-.263-.21l-.288-.026c-1.05-.105-1.575-.498-1.944-1.523L112.124.91c-.209-.525-.341-.788-.708-.788-.394 0-.605.263-.893.946l-5.827 13.65c-.735 1.68-1.389 1.891-2.545 1.97-.132 0-.211.079-.211.21v.498l.054.053s1.68-.053 2.363-.053c.63 0 3.491.053 3.491.053l.053-.053v-.499a.207.207 0 0 0-.21-.209Zm3.124-13.73 2.546 7.007v.001h-4.569c-.577 0-.76-.078-.655-.341l2.625-6.667h.053Z" clip-rule="evenodd"/></svg>
